X:1     %Music
T:Faithful Emma
B:Broadwood, L, 1893, English County Songs, London, Leadenhall Press
S:Heywood Sumner, Esq.
Z:Lucy Broadwood
M:4/4     %Meter
L:1/8     %
K:C
G2 |c2 B2 A2 G2 |F2 E2 F2 G2 |A2 G2 F2 G2 | C4
w:The lambs they skip with pleas-ure, And the mea-dows are so green
(c2 d2) |e2 e2 c2 e2 |(d2 c2) e2 d2 |c2 c2 E2 F2 |G4
w: One_ of the fin-est moun--tains That ev-er eyes have seen.
c2 d2 |e4 c2 e2 |d2 c2 e2 d2 |c4 E2 F2 | G4 
w:There's fine hunt-ing, fine fish-ing, And fine fowl-ing al-so
A2 B2 |c2 B2 A2 G2 |F2 E2 F2 G2 |A3 G A2 B2 | c4|]
w:On the top of yon-der moun-tain Where the fin-est flow-ers grow.